assets/img/img-pages/icon-property/heart1.svg

<svg width="64" height="64" viewBox="0 0 64 64" fill="none" xmlns="http://www.w3.org/2000/svg">
<path d="M51.1038 39.2099C51.1053 39.2128 51.1068 39.2157 51.1078 39.2182C51.3202 39.6938 51.7708 39.9726 52.2489 39.9726C52.4198 39.9726 52.5941 39.9369 52.762 39.8622C53.4017 39.578 53.6781 38.849 53.3919 38.2026C53.1063 37.5561 52.3807 37.2704 51.7401 37.5522C51.0994 37.8344 50.8202 38.5624 51.1038 39.2099Z" fill="#14213D"/>
<path d="M54.5527 42.8529C54.4453 42.1713 53.8052 41.7055 53.123 41.8139C52.4414 41.9213 51.9761 42.5614 52.084 43.2436C52.3642 45.0194 52.4414 46.8295 52.3125 48.623C52.0137 52.7807 49.9121 56.5751 46.5464 59.0341L45.7012 59.6513C44.0454 60.8607 42.0869 61.4999 40.0366 61.4999C39.2944 61.4999 38.5518 61.4135 37.8301 61.243L34.5176 60.4608C28.1153 58.9491 22.2754 55.3964 18.0738 50.4574C16.2061 48.2616 15.3638 46.6645 14.7169 45.0194C14.7686 44.8525 14.7872 44.6723 14.7628 44.4872C14.7559 44.4335 14.1407 39.0346 21.7544 35.5688C26.9761 33.1918 29.419 29.1269 30.2691 27.3745C35.9937 28.1645 37.9639 29.7758 38.1104 29.9023C38.4126 30.2226 38.8296 30.3261 39.2612 30.2285C39.3652 30.205 39.4683 30.1826 39.5708 30.1611C43.5762 29.3203 47.7075 31.4536 49.396 35.2314C49.6777 35.8617 50.417 36.1445 51.0473 35.8627C51.6777 35.581 51.9599 34.8417 51.6787 34.2114C50.7222 32.0722 49.1138 30.2709 47.1113 29.0742C47.1123 29.0698 47.1143 29.0659 47.1157 29.0615C47.3677 28.2563 47.4951 27.4165 47.4951 26.5659C47.4951 26.3955 47.4883 26.2265 47.4785 26.0585H48.3457C49.0356 26.0585 49.5957 25.499 49.5957 24.8085C49.5957 24.1181 49.0356 23.5585 48.3457 23.5585H46.9326C46.6113 22.7294 46.1626 21.9633 45.6084 21.2861L46.1743 20.7202C46.6626 20.2319 46.6626 19.4404 46.1743 18.9521C45.686 18.4643 44.895 18.4643 44.4067 18.9521L43.7524 19.6064C42.7388 18.9336 41.5703 18.476 40.3125 18.2993C41.9688 16.9746 44.1445 16.3471 46.7959 16.4375C47.1343 16.4502 47.4634 16.3222 47.7075 16.0869C47.9512 15.8515 48.0884 15.5273 48.0884 15.1884V10.4267C48.0884 9.77635 47.5898 9.23485 46.9414 9.18114C46.7388 9.16453 44.3979 8.98631 41.3545 9.35252C39.9937 6.71923 38.0781 4.76317 35.875 3.67724L36.7598 2.35644C37.1441 1.78271 36.9902 1.00635 36.4165 0.622557C35.8433 0.238281 35.0669 0.391601 34.6826 0.96533L33.416 2.85644C32.876 2.75683 32.3257 2.70361 31.7686 2.70361C31.4473 2.70361 31.1275 2.72167 30.8106 2.75537V1.25C30.8106 0.559569 30.251 0 29.5606 0C28.8701 0 28.3106 0.559569 28.3106 1.25V3.38769C27.1377 3.86523 26.0269 4.58642 25.0122 5.54149C24.253 6.25585 23.5699 7.08202 22.9707 7.99852C22.502 7.07372 21.542 6.43749 20.4361 6.43749H17.043C15.4766 6.43749 14.2022 7.7119 14.2022 9.2783V22.0561C13.5733 22.5449 12.9669 23.1176 12.3868 23.7793C9.64655 26.9047 9.10114 31.0004 9.12604 33.8857C9.15436 37.1493 9.94342 40.4765 11.1905 42.6098C11.379 43.1147 11.5484 43.6015 11.713 44.0736C12.5533 46.4828 13.3467 48.7587 16.1695 52.077C20.7139 57.4193 27.0259 61.2606 33.9434 62.8939L37.2554 63.6761C38.1655 63.891 39.1011 63.9999 40.0366 63.9999C42.6206 63.9999 45.0894 63.1942 47.1753 61.6703L48.0205 61.0531C51.9814 58.1596 54.4546 53.6947 54.8061 48.8022C54.9487 46.8188 54.8633 44.8173 54.5527 42.8529ZM39.2988 27.6665C38.7949 27.3159 37.936 26.8164 36.5938 26.3154C36.6973 25.1123 37.0464 22.8452 38.2202 20.7895C38.5244 20.7417 38.835 20.7163 39.145 20.7163C42.3706 20.7163 44.9951 23.3408 44.9951 26.5664C44.9951 27.0629 44.9321 27.5532 44.8101 28.0283C43.0356 27.4531 41.1353 27.3237 39.2988 27.6665ZM45.5884 11.6318V13.9443C42.4917 14.0786 39.937 15.1128 37.981 17.0258C35.2339 19.7138 34.4053 23.4477 34.1568 25.5693C32.961 25.2709 31.541 25.0019 29.8609 24.8012C29.481 24.4492 29.1026 24.1171 28.7256 23.8037C28.7276 23.7734 28.73 23.7436 28.73 23.7128C28.73 20.3554 29.815 17.6523 31.9541 15.6792C36.0225 11.9267 42.8813 11.6054 45.5884 11.6318ZM31.7686 5.2036C32.395 5.2036 33.0122 5.29589 33.6128 5.47118C33.6133 5.47118 33.6143 5.47167 33.6148 5.47167C35.6069 6.0537 37.4116 7.5659 38.7373 9.78758C35.8316 10.414 32.6875 11.605 30.2666 13.8344C27.9615 15.957 26.6353 18.7148 26.3101 22.0483C25.2871 21.4135 24.2749 20.9257 23.2769 20.5874V13.3593C23.2984 13.3091 23.3184 13.2578 23.334 13.2041C24.7124 8.41893 28.1021 5.2036 31.7686 5.2036ZM16.7022 9.2783C16.7022 9.09031 16.855 8.93748 17.043 8.93748H20.4361C20.6241 8.93748 20.7769 9.09031 20.7769 9.2783V20.0493C20.358 20.0127 19.9424 20.0029 19.5293 20.0214C18.5513 20.0649 17.608 20.2651 16.7022 20.6176V9.2783ZM14.2667 25.4277C15.8824 23.5844 17.6905 22.6059 19.6407 22.519C22.1275 22.4077 24.9888 23.7592 27.94 26.4331C27.1768 27.9306 25.0533 31.3203 20.7188 33.2934C15.9351 35.4706 13.8931 38.4247 13.022 40.519C13.0074 40.5546 12.9937 40.5893 12.9791 40.6244C11.399 37.124 10.5494 29.6674 14.2667 25.4277Z" fill="#14213D"/>
<path d="M24.9775 50.2709C24.4462 49.83 23.6581 49.9037 23.2172 50.4349C22.7768 50.9662 22.85 51.7543 23.3813 52.1947C26.7626 55.0004 30.8124 57.017 35.0922 58.0277C35.1889 58.0507 35.2856 58.0614 35.3808 58.0614C35.9472 58.0614 36.4604 57.6737 36.5961 57.0985C36.7548 56.4266 36.3388 55.7533 35.6669 55.5946C31.7602 54.6723 28.0639 52.8309 24.9775 50.2709Z" fill="#14213D"/>
<path d="M20.1085 47.0794C19.5865 47.5316 19.5275 48.3172 19.9791 48.8387C20.2267 49.1356 20.5822 49.2884 20.9405 49.2884C21.2228 49.2884 21.5065 49.1937 21.7399 48.9989C22.2701 48.557 22.3419 47.7689 21.9 47.2386L21.8746 47.2088C21.4225 46.6868 20.63 46.6273 20.1085 47.0794Z" fill="#14213D"/>
</svg>

<svg width="64" height="64" fill="none" xmlns="http://www.w3.org/2000/svg"><path d="m51.104 39.21.004.008a1.25 1.25 0 0 0 1.14.755c.172 0 .346-.036.514-.11.64-.285.916-1.014.63-1.66a1.243 1.243 0 0 0-1.652-.65c-.64.281-.92 1.01-.636 1.657Z" fill="#14213D"/><path d="M54.553 42.853a1.249 1.249 0 1 0-2.469.39c.28 1.776.357 3.587.228 5.38a14.124 14.124 0 0 1-5.766 10.411l-.845.617a9.542 9.542 0 0 1-5.664 1.849 9.61 9.61 0 0 1-2.207-.257l-3.312-.782c-6.403-1.512-12.243-5.065-16.444-10.004-1.868-2.195-2.71-3.793-3.357-5.438.052-.166.07-.347.046-.532-.007-.053-.622-5.452 6.991-8.918 5.222-2.377 7.665-6.442 8.515-8.195 5.725.79 7.695 2.402 7.841 2.528.303.32.72.424 1.151.326l.31-.067c4.005-.84 8.137 1.293 9.825 5.07a1.25 1.25 0 1 0 2.283-1.02 11.45 11.45 0 0 0-4.568-5.137l.005-.013a8.346 8.346 0 0 0 .362-3.003h.868a1.25 1.25 0 0 0 0-2.5h-1.413a8.355 8.355 0 0 0-1.325-2.272l.566-.566a1.25 1.25 0 0 0-1.767-1.768l-.655.654a8.302 8.302 0 0 0-3.44-1.307c1.657-1.324 3.833-1.952 6.484-1.861a1.248 1.248 0 0 0 1.292-1.25v-4.761a1.25 1.25 0 0 0-1.147-1.246c-.202-.016-2.543-.195-5.587.172-1.36-2.634-3.276-4.59-5.479-5.676l.885-1.32A1.25 1.25 0 1 0 34.683.964l-1.267 1.891a9.074 9.074 0 0 0-2.605-.1V1.25a1.25 1.25 0 1 0-2.5 0v2.138c-1.173.477-2.284 1.198-3.299 2.153A13.53 13.53 0 0 0 22.971 8a2.843 2.843 0 0 0-2.535-1.562h-3.393a2.844 2.844 0 0 0-2.84 2.841v12.778a13.156 13.156 0 0 0-1.816 1.723C9.647 26.905 9.1 31 9.126 33.886c.028 3.263.817 6.59 2.065 8.724.188.505.357.992.522 1.464.84 2.409 1.634 4.685 4.457 8.003 4.544 5.342 10.856 9.184 17.773 10.817l3.312.782c.91.215 1.846.324 2.782.324 2.584 0 5.052-.806 7.138-2.33l.846-.617a16.619 16.619 0 0 0 6.785-12.25 26.142 26.142 0 0 0-.253-5.95ZM39.299 27.666c-.504-.35-1.363-.85-2.705-1.35.103-1.204.452-3.47 1.626-5.526a5.857 5.857 0 0 1 6.59 7.239 11.224 11.224 0 0 0-5.511-.363Zm6.29-16.034v2.312c-3.097.135-5.652 1.169-7.608 3.082-2.747 2.688-3.576 6.422-3.824 8.543a34.81 34.81 0 0 0-4.296-.768 28.11 28.11 0 0 0-1.135-.997c.002-.03.004-.06.004-.091 0-3.358 1.085-6.06 3.224-8.034 4.069-3.752 10.927-4.074 13.634-4.047Zm-13.82-6.428c.626 0 1.243.092 1.844.267h.002c1.992.583 3.797 2.095 5.122 4.317-2.905.626-6.05 1.817-8.47 4.046-2.305 2.123-3.632 4.88-3.957 8.214-1.023-.634-2.035-1.122-3.033-1.46v-7.229c.021-.05.041-.101.057-.155 1.378-4.785 4.768-8 8.435-8ZM16.702 9.278c0-.188.153-.34.341-.34h3.393c.188 0 .34.152.34.34V20.05a9.456 9.456 0 0 0-1.247-.028 8.83 8.83 0 0 0-2.827.597V9.278Zm-2.435 16.15c1.615-1.844 3.424-2.822 5.374-2.909 2.487-.111 5.348 1.24 8.299 3.914-.763 1.498-2.887 4.887-7.221 6.86-4.784 2.178-6.826 5.132-7.697 7.226l-.043.105c-1.58-3.5-2.43-10.957 1.288-15.196Z" fill="#14213D"/><path d="M24.977 50.27a1.25 1.25 0 0 0-1.596 1.925 28.8 28.8 0 0 0 11.711 5.833 1.25 1.25 0 0 0 .575-2.433 26.295 26.295 0 0 1-10.69-5.324ZM20.108 47.08a1.246 1.246 0 0 0-.129 1.759 1.248 1.248 0 0 0 1.76.16 1.25 1.25 0 0 0 .161-1.76l-.025-.03a1.253 1.253 0 0 0-1.767-.13Z" fill="#14213D"/></svg>
